!!!COM: Palestrina, Giovanni Perluigi da
!!!OPR: Missa Dies sanctificatus
!!!OTL: Kyrie
**kern	**kern	**kern	**kern
*Ibass	*Itenor	*Icalto	*Icant
!Bassus	!Tenor	!Altus	!Cantus
*clefF4	*clefGv2	*clefG2	*clefG2
*k[]	*k[]	*k[]	*k[]
*G:mix	*G:mix	*G:mix	*G:mix
*M4/2	*M4/2	*M4/2	*M4/2
=1	=1	=1	=1
0r	0r	0r	0dd
=2	=2	=2	=2
0r	0r	0g	1dd
.	.	.	1ee
=3	=3	=3	=3
0r	0r	1g	2dd
.	.	.	2b
.	.	1a	1cc
=4	=4	=4	=4
0r	0r	2g	1b
.	.	2e	.
.	.	1f	2r
.	.	.	2a
=5	=5	=5	=5
0r	0r	1e	2b
.	.	.	2cc
.	.	2r	2.dd
.	.	2d	.
.	.	.	4cc
=6	=6	=6	=6
0r	0r	2e	2b
.	.	2f#	2a
.	.	2g	2.b
.	.	2e	.
.	.	.	4cc
=7	=7	=7	=7
0r	0d	2f#	2a
.	.	1g	2b
.	.	.	1a
.	.	2f#	.
=8	=8	=8	=8
0G	1d	1g	0b
.	1e	2r	.
.	.	[2g	.
=9	=9	=9	=9
1G	2d	4g]	2r
.	.	4f	.
.	2B	1e	2g
1A	1c	.	2e
.	.	4d	2f#
.	.	4c	.
=10	=10	=10	=10
2G	1B	2d	2g
2E	.	2e	2g
1F	2r	2A	4a
.	.	.	4b
.	2A	[2a	4cc
.	.	.	4dd
=11	=11	=11	=11
1E	2B	2a]	1ee
.	2c	2g	.
2r	2.d	4f	1a
.	.	4g	.
2D	.	4a	.
.	4c	4f	.
=12	=12	=12	=12
2E	2B	2g	0r
2F	2A	4f	.
.	.	4e	.
2G	2B	2d	.
2E	[2c	2e	.
=13	=13	=13	=13
2F	2c]	2d	1r
1G	2B	2d	.
.	1A	2e	2r
2F	.	2f	2a
=14	=14	=14	=14
1E	1G	2.g	2b
.	.	.	2cc
.	.	4e	.
1D	2r	4f	[1dd
.	.	4g	.
.	2A	[2a	.
=15	=15	=15	=15
1r	2B	4a]	2dd]
.	.	4g	.
.	2c	1g	4cc
.	.	.	4b
2r	1d	.	2.a
2D	.	2f	.
.	.	.	4b
=16	=16	=16	=16
2E	2r	2g	1cc
2F	2A	2a	.
2G	2B	2d	2b
2E	2c	2e	2g
=17	=17	=17	=17
2D	2d	2f	2r
2F	2.c	2.a	2a
1E	.	.	2b
.	4B	4g	.
.	4A	[2g	2cc
.	4G	.	.
=18	=18	=18	=18
0D	1A	2g]	2.dd
.	.	4f#	.
.	.	4e	8cc
.	.	.	8b
.	1d	1f#	1a
=19	=19	=19	=19
0G	0d	0g	0b
=20	=20	=20	=20
0r	1G	0g	0r
.	[1c	.	.
=21	=21	=21	=21
1G	2c]	0g	0r
.	2B	.	.
[1c	2.e	.	.
.	4d	.	.
=22	=22	=22	=22
2c]	4e	1g	0r
.	4c	.	.
2B	2d	.	.
2.e	4c	2.g	.
.	4B	.	.
.	4c	.	.
4d	4d	4f	.
=23	=23	=23	=23
2c	4e	2e	1g
.	4f	.	.
2B	1g	2d	.
1A	.	1c	[1cc
.	2f#	.	.
=24	=24	=24	=24
1G	1.g	1d	2cc]
.	.	.	2b
2.c	.	1r	2.ee
.	2e	.	.
4B	.	.	4dd
=25	=25	=25	=25
2A	2f	1r	2cc
2G	2g	.	2b
2.A	1e	1c	[1a
4G	.	.	.
=26	=26	=26	=26
4F	1r	1.f	1a]
4E	.	.	.
2F	.	.	.
1C	1c	.	2g
.	.	2e	[2cc
=27	=27	=27	=27
0r	2.f	2.a	2cc]
.	.	.	2a
.	4e	4g	.
.	2d	2f	2b-
.	2c	2e	[2a
=28	=28	=28	=28
1G	2.B-	1d	4a]
.	.	.	4g
.	.	.	1g
.	8A	.	.
.	8G	.	.
[1c	1A	2r	.
.	.	2c	2f#
=29	=29	=29	=29
2c]	1G	2.d	1g
2B	.	.	.
.	.	4e	.
2.A	2.c	2f	1r
.	.	2e	.
4G	4B	.	.
=30	=30	=30	=30
2F	2A	2a	1cc
2E	1c	2g	.
1D	.	1f	[1ff
.	2B	.	.
=31	=31	=31	=31
2C	1c	1r	2ff]
1c	.	.	2ee
.	1G	1g	1dd
2B	.	.	.
=32	=32	=32	=32
1.A	0r	1.cc	4ee
.	.	.	4dd
.	.	.	4cc
.	.	.	4b
.	.	.	2a
2G	.	2b	2b
=33	=33	=33	=33
2.F	0r	2.a	2cc
.	.	.	4f
4E	.	4g	4g
2D	.	2f	4a
.	.	.	4b
2C	.	2e	[2cc
=34	=34	=34	=34
1G	1r	2d	2cc]
.	.	2g	2b
1A	1c	2f	2.a
.	.	2e	.
.	.	.	4b
=35	=35	=35	=35
1F	1.f	1a	[0cc
1C	.	1g	.
.	2e	.	.
=36	=36	=36	=36
2.F	2.a	2.f	1cc]
4G	4g	8e	.
.	.	8d	.
4A	2f	1c	1r
4B	.	.	.
[2c	2e	.	.
=37	=37	=37	=37
2c]	1d	2G	1g
2B	.	1g	.
1A	1c	.	[1cc
.	.	2f	.
=38	=38	=38	=38
1G	1g	2e	2cc]
.	.	2d	2b
2.C	2.g	4c	2.ee
.	.	4d	.
.	.	4e	.
4D	4f	4f	4dd
=39	=39	=39	=39
1E	2.e	1g	2cc
.	.	.	2b
.	4d	.	.
1F	1c	1f	1a
=40	=40	=40	=40
0C	0c	0e	0g
=41	=41	=41	=41
0r	0r	1a	1r
.	.	[1cc	1ee
=42	=42	=42	=42
0r	0r	2cc]	1gg
.	.	2b	.
.	.	1a	2ff
.	.	.	[2ee
=43	=43	=43	=43
0r	0r	2g	4ee]
.	.	.	4dd
.	.	2.a	2.ff
.	.	4g	4ee
.	.	2e	[2ee
=44	=44	=44	=44
1r	0r	1f	2ee]
.	.	.	2dd
1A	.	2e	[1ee
.	.	2a	.
=45	=45	=45	=45
1.c	1e	2.g	1ee]
.	.	4f	.
.	1g	2e	2r
2B	.	2d	2b
=46	=46	=46	=46
1A	2f	1c	1cc
.	2.e	.	.
2G	.	2r	2b
.	4d	.	.
[2A	[2f	2a	[2a
=47	=47	=47	=47
4A]	4f]	2cc	2a]
4G	4e	.	.
2E	2.e	1b	2g
1F	.	.	2.a
.	8d	.	.
.	8c	.	.
.	2d	[2a	.
.	.	.	4b
=48	=48	=48	=48
1E	1e	2a]	2cc
.	.	2g	2b
4D	2r	1f	2dd
4E	.	.	.
4F	2A	.	[2cc
4G	.	.	.
=49	=49	=49	=49
4A	1c	1e	4cc]
4B	.	.	4dd
4c	.	.	4ee
4A	.	.	4cc
4B	2G	2r	1dd
4c	.	.	.
[2d	2B	2d	.
=50	=50	=50	=50
2d]	2A	2f	1r
2c#	2.a	2e	.
2d	.	1d	2r
.	4g	.	.
[2D	4f	.	2dd
.	4e	.	.
=51	=51	=51	=51
4D]	1d	2r	1.ff
4E	.	.	.
4F	.	2a	.
4G	.	.	.
4A	1r	[1cc	.
4B	.	.	.
2c	.	.	2ee
=52	=52	=52	=52
1G	1r	2cc]	1dd
.	.	2b	.
1r	2r	2a	2cc
.	2d	[2b	[2dd
=53	=53	=53	=53
0r	1f	4b]	4dd]
.	.	4a	4cc
.	.	1a	2a
.	1e	.	1b
.	.	2g	.
=54	=54	=54	=54
1r	1d	1f	2r
.	.	.	2a
2r	2c	2e	2cc
2D	[2d	[2f	[2b
=55	=55	=55	=55
1F	4d]	2f]	4b]
.	4c	.	4a
.	2A	2d	1a
1E	1B	1e	.
.	.	.	2g#
=56	=56	=56	=56
2F	[0A	1r	2a
2.D	.	.	2dd
.	.	1a	[1ff
4E	.	.	.
4F	.	.	.
4G	.	.	.
=57	=57	=57	=57
4A	1A]	1.cc	2ff]
4B	.	.	.
2c	.	.	2ee
1G	2r	.	1dd
.	2d	2b	.
=58	=58	=58	=58
2r	1.f	1a	1cc
2A	.	.	.
[1c	.	1g	2r
.	2e	.	2g
=59	=59	=59	=59
2c]	1d	2r	2a
2B	.	2d	2b
2A	2c	2e	2cc
2D	[2d	2f#	2a
=60	=60	=60	=60
2G	4d]	2g	2b
.	4c	.	.
2F	2A	2a	4cc
.	.	.	4dd
2E	2B	2g	[1ee
2C	[2c	[2a	.
=61	=61	=61	=61
1E	4c]	4a]	2ee]
.	4B	4g	.
.	2G	1g	2cc
1D	1A	.	1dd
.	.	2f#	.
=62	=62	=62	=62
[0G	[0G	[0g	[0b
=63	=63	=63	=63
0G]	0G]	0g]	0b]
==	==	==	==
*-	*-	*-	*-
!!!CDT: 1525/^1526/-1594/2/2
!!!OCY: Italia
!!!AGN: Mass (Parody)
!!!AST: renaissance, vocal
!!!ASW: Motet 1563 (Palestrina)
!!!PWK: Masses, Book 6
!!!RNB: Cadence finals: D,A,C
!!!YOR: Le Opere Complete, v. 21, p. 1
!!!YOO: Rome, Italy: Fratelli Scalera
!!!END: 1992//
!!!EED: John Miller
!!!YEC: Copyright 2000, John Miller
!!!YEN: United States of America
!!!YEM: Rights to all derivative electronic formats reserved.
!!!YEM: Refer to licensing agreement for further details.
!!!YEM: This file must be accompanied by the licensing agreement.
!!!YEM: A copy of the licensing agreement may be found at http://www.music-cog.ohio-state.edu/HumdrumDatabases/Palestrina/license.txt
!!!EMD: converted to Humdrum by Bret Aarden
